assets/icons/24px/stroke/flag-24px.svg

<svg width="24" height="24" viewBox="0 0 24 24" fill="none" xmlns="http://www.w3.org/2000/svg">
<path fill-rule="evenodd" clip-rule="evenodd" d="M18.8977 2.04845C19.2186 2.09383 19.8934 2.23724 20.1787 2.92599C20.464 3.61475 20.0883 4.19332 19.8934 4.45234C19.6845 4.73 19.369 5.04542 19.045 5.36924C19.03 5.38422 19.015 5.39922 19 5.41423L17.4142 7.00002L19 8.58581C19.015 8.60082 19.03 8.61582 19.045 8.6308C19.369 8.95462 19.6846 9.27004 19.8934 9.5477C20.0883 9.80672 20.464 10.3853 20.1787 11.074C19.8934 11.7628 19.2186 11.9062 18.8977 11.9516C18.5537 12.0002 18.1075 12.0001 17.6494 12C17.6282 12 17.607 12 17.5858 12H7.00001V21C7.00001 21.5523 6.5523 22 6.00001 22C5.44773 22 5.00001 21.5523 5.00001 21V5.00002C5.00001 4.98186 5.00001 4.96373 5.00001 4.94561C4.99992 4.52154 4.99984 4.10941 5.04554 3.7695C5.09706 3.3863 5.22259 2.94902 5.5858 2.58581C5.94902 2.22259 6.38629 2.09707 6.76949 2.04555C7.10941 1.99985 7.52154 1.99993 7.94561 2.00001C7.96372 2.00002 7.98186 2.00002 8.00001 2.00002H17.5858C17.607 2.00002 17.6282 2.00001 17.6494 2.00001C18.1075 1.99991 18.5537 1.9998 18.8977 2.04845ZM7.00001 10L17.5858 10L16 8.41423C15.9909 8.40508 15.9816 8.3958 15.9722 8.3864C15.8307 8.24515 15.6624 8.07699 15.5371 7.91282C15.3859 7.71464 15.2071 7.41013 15.2071 7.00002C15.2071 6.58991 15.3859 6.28539 15.5371 6.08722C15.6624 5.92305 15.8307 5.75489 15.9721 5.61365C15.9816 5.60425 15.9909 5.59496 16 5.58581L17.5858 4.00002H8.00001C7.50034 4.00002 7.22618 4.00214 7.03599 4.02771C7.03351 4.02805 7.03108 4.02838 7.02871 4.02871C7.02838 4.03109 7.02804 4.03352 7.02771 4.036C7.00214 4.22619 7.00001 4.50034 7.00001 5.00002V10ZM17.1249 6.69655C17.1249 6.69655 17.1252 6.69699 17.1258 6.69787ZM17.1258 7.30218C17.1252 7.30304 17.1249 7.30348 17.1249 7.30349Z" fill="white"/>
</svg>

<svg width="24" height="24" fill="none" xmlns="http://www.w3.org/2000/svg"><path fill-rule="evenodd" clip-rule="evenodd" d="M18.898 2.048c.32.046.995.19 1.28.878.286.689-.09 1.267-.285 1.526-.209.278-.524.593-.848.917L19 5.414 17.414 7 19 8.586l.045.045c.324.324.64.639.848.917.195.259.571.837.286 1.526-.286.689-.96.832-1.281.878-.344.048-.79.048-1.249.048H7v9a1 1 0 1 1-2 0V5v-.054c0-.424 0-.837.046-1.176.051-.384.177-.821.54-1.184.363-.363.8-.489 1.183-.54C7.11 2 7.522 2 7.946 2H17.649c.459 0 .905 0 1.249.048zM7 10h10.586L16 8.414l-.028-.028a5.03 5.03 0 0 1-.435-.473 1.488 1.488 0 0 1-.33-.913c0-.41.179-.715.33-.913A5.041 5.041 0 0 1 16 5.586L17.586 4H8c-.5 0-.774.002-.964.028h-.007l-.001.008C7.002 4.226 7 4.5 7 5v5zm10.125-3.303zm0 .605v.001z" fill="#fff"/></svg>
